X: 151
T: Chatagee Reel
T: reel de Chateauguay
B: NEFR #151
F: http://www.ibiblio.org/fiddlers/CHA_CHENY.htm
M: C|
L: 1/8
R: Reel
K: G
ga |\
b2 bg a2 af | gb ge d2 g2 | fd AB cB ce | dB GA B2 ga |
b2 bg a2 af | gb ge d2 g2 | fd AB cd ef | ga gf g2 :|
|: d2 |\
G2 GB d2 (3gag | ef ge d2 g2 | fd AB cB ce | dB GA B2 BA |
G2 GB d2 (3gag | ef ge d2 g2 | fd AB cd ef | ga gf g2 :|


